svg_80x80/gcp.svg

<svg viewBox="0 0 80 80" xmlns="http://www.w3.org/2000/svg">
<rect width="100%" height="100%" fill="white"/>
<path d="M48.6107 27.183H50.5627L56.1259 21.6198L56.3992 19.2579C53.2122 16.445 49.3608 14.491 45.2087 13.5804C41.0566 12.6699 36.7409 12.8328 32.6693 14.0539C28.5977 15.275 24.9046 17.5139 21.9389 20.5591C18.9732 23.6044 16.8327 27.3554 15.7197 31.4578C16.3395 31.2038 17.026 31.1626 17.6717 31.3407L28.798 29.5059C28.798 29.5059 29.3641 28.5689 29.6569 28.6275C32.0409 26.0092 35.3356 24.4012 38.8664 24.1327C42.3973 23.8641 45.8972 24.9554 48.6498 27.183H48.6107Z" fill="#EA4335"/>
<path d="M64.0515 31.4579C62.7728 26.749 60.1474 22.5157 56.4973 19.2775L48.6894 27.0854C50.3166 28.415 51.6207 30.0968 52.5033 32.0039C53.3858 33.911 53.8237 35.9936 53.7841 38.0946V39.4805C54.6966 39.4805 55.6003 39.6603 56.4434 40.0095C57.2865 40.3587 58.0525 40.8706 58.6978 41.5159C59.3431 42.1612 59.8549 42.9272 60.2042 43.7703C60.5534 44.6134 60.7331 45.5171 60.7331 46.4296C60.7331 47.3422 60.5534 48.2458 60.2042 49.0889C59.8549 49.932 59.3431 50.6981 58.6978 51.3434C58.0525 51.9886 57.2865 52.5005 56.4434 52.8497C55.6003 53.1989 54.6966 53.3787 53.7841 53.3787H39.8859L38.5 54.7841V63.1191L39.8859 64.505H53.7841C57.6651 64.5352 61.4527 63.3155 64.5868 61.0261C67.7208 58.7368 70.0347 55.4995 71.1863 51.7932C72.3378 48.0868 72.2658 44.1082 70.9809 40.4459C69.6959 36.7837 67.2664 33.6323 64.0515 31.4579Z" fill="#4285F4"/>
<path d="M25.9683 64.4269H39.8664V53.3005H25.9683C24.9781 53.3003 23.9995 53.0873 23.0988 52.6759L21.1468 53.281L15.5446 58.8442L15.0566 60.7962C18.1982 63.1684 22.0316 64.444 25.9683 64.4269Z" fill="#34A853"/>
<path d="M25.9674 28.3348C22.2017 28.3573 18.537 29.5554 15.4852 31.7617C12.4335 33.9681 10.147 37.0725 8.94519 40.6414C7.74338 44.2102 7.68625 48.0654 8.78178 51.6683C9.8773 55.2712 12.0708 58.442 15.0558 60.7378L23.1175 52.6761C22.0931 52.2133 21.1962 51.5088 20.5038 50.6231C19.8115 49.7374 19.3443 48.697 19.1425 47.5911C18.9407 46.4851 19.0101 45.3468 19.345 44.2736C19.6798 43.2005 20.27 42.2245 21.0649 41.4296C21.8598 40.6347 22.8357 40.0445 23.9089 39.7097C24.982 39.3749 26.1204 39.3054 27.2263 39.5072C28.3322 39.7091 29.3727 40.1762 30.2584 40.8685C31.144 41.5609 31.8485 42.4578 32.3114 43.4823L40.3731 35.4205C38.681 33.2085 36.5002 31.4178 34.0011 30.1886C31.502 28.9594 28.7524 28.3249 25.9674 28.3348Z" fill="#FBBC05"/>
</svg>

<svg xmlns="http://www.w3.org/2000/svg" viewBox="0 0 80 80">
  <rect width="100%" height="100%" fill="#fff"/>
  <path fill="#EA4335" d="M48.61 27.18h1.95l5.57-5.56.27-2.36a25 25 0 0 0-40.68 12.2c.62-.26 1.3-.3 1.95-.12l11.13-1.83s.56-.94.86-.88a13.88 13.88 0 0 1 18.99-1.45h-.04Z"/>
  <path fill="#4285F4" d="M64.05 31.46a25.06 25.06 0 0 0-7.55-12.18l-7.81 7.8a13.88 13.88 0 0 1 5.1 11.01v1.39a6.95 6.95 0 0 1 0 13.9h-13.9l-1.39 1.4v8.34l1.39 1.38h13.9a18.08 18.08 0 0 0 10.26-33.04Z"/>
  <path fill="#34A853" d="M25.97 64.43h13.9V53.3h-13.9c-1 0-1.97-.21-2.87-.62l-1.95.6-5.6 5.56-.5 1.96a17.98 17.98 0 0 0 10.92 3.63Z"/>
  <path fill="#FBBC05" d="M25.97 28.33a18.08 18.08 0 0 0-10.91 32.4l8.06-8.05a6.95 6.95 0 1 1 9.2-9.2l8.05-8.06a18.06 18.06 0 0 0-14.4-7.09Z"/>
</svg>
